storage/app/icons/phosphoricons/duotone/stairs-duotone.svg

<svg xmlns="http://www.w3.org/2000/svg" fill="currentColor" viewBox="0 0 256 256"><path d="M208 40v56h-56v40h-48v40H48V40a8 8 0 0 1 8-8h144a8 8 0 0 1 8 8" opacity=".2"/><path d="M200 24H56a16 16 0 0 0-16 16v176a16 16 0 0 0 16 16h144a16 16 0 0 0 16-16V40a16 16 0 0 0-16-16m-48 120h48v24h-88v-24Zm8-16v-24h40v24Zm40-88v48h-48a8 8 0 0 0-8 8v32h-40a8 8 0 0 0-8 8v32H56V40Zm0 176H56v-32h144z"/></svg>

<svg xmlns="http://www.w3.org/2000/svg" viewBox="0 0 256 256" fill="currentColor"><path d="M208,40V96H152v40H104v40H48V40a8,8,0,0,1,8-8H200A8,8,0,0,1,208,40Z" opacity="0.2"/><path d="M200,24H56A16,16,0,0,0,40,40V216a16,16,0,0,0,16,16H200a16,16,0,0,0,16-16V40A16,16,0,0,0,200,24ZM152,144h48v24H112V144Zm8-16V104h40v24Zm40-88V88H152a8,8,0,0,0-8,8v32H104a8,8,0,0,0-8,8v32H56V40Zm0,176H56V184H200v32Z"/></svg>
